svg/columns.svg

<svg width="480" height="480" viewBox="0 0 480 480" xmlns="http://www.w3.org/2000/svg" ><title>columns</title><path d="M260 140l160 0 0-40-160 0 0 40z m-200 240l160 0 0-40-160 0 0 40z m0-80l160 0 0-40-160 0 0 40z m0-80l160 0 0-40-160 0 0 40z m0-80l160 0 0-40-160 0 0 40z m200 240l160 0 0-40-160 0 0 40z m0-80l160 0 0-40-160 0 0 40z m0-80l160 0 0-40-160 0 0 40z" /></svg>

<svg xmlns="http://www.w3.org/2000/svg" width="480" height="480" viewBox="0 0 480 480"><title>columns</title><path d="M260 140h160v-40H260zM60 380h160v-40H60zm0-80h160v-40H60zm0-80h160v-40H60zm0-80h160v-40H60zm200 240h160v-40H260zm0-80h160v-40H260zm0-80h160v-40H260z"/></svg>
